!!!COM: Palestrina, Giovanni Perluigi da
!!!OPR: Missa Brevis
!!!OTL: Gloria
**kern	**kern	**kern	**kern
*Ibass	*Itenor	*Icalto	*Icant
!Bassus	!Tenor	!Altus	!Cantus
*clefF4	*clefGv2	*clefG2	*clefG2
*k[b-]	*k[b-]	*k[b-]	*k[b-]
*F:ion	*F:ion	*F:ion	*F:ion
*M4/2	*M4/2	*M4/2	*M4/2
=1	=1	=1	=1
1.F	1.f	1.a	1.cc
2F	2f	2a	2cc
=2	=2	=2	=2
2A	2e	2a	2cc
2A	2c	2f	2cc
2G	2d	2g	2b-
2G	2e	2g	2b-
=3	=3	=3	=3
2F	2f	2c	2a
2F	2f	2c	2a
2C	1e	1c	1g
[2c	.	.	.
=4	=4	=4	=4
2c]	2g	2e	2.cc
2c	2g	2e	.
.	.	.	4cc
2A	2a	2f	2cc
2B-	2d	2f	2dd
=5	=5	=5	=5
1G	2d	1g	1b-
.	2e	.	.
1F	1f	2c	2a
.	.	2c	2cc
=6	=6	=6	=6
0r	0r	2f	2a
.	.	2g	2b-
.	.	2a	2cc
.	.	2f	2dd
=7	=7	=7	=7
0r	1r	2g	2b-
.	.	2.a	2.cc
.	1F	.	.
.	.	4g	4b-
.	.	2f	2a
=8	=8	=8	=8
1.C	1c	2e	2g
.	.	1e	1g
.	[1c	.	.
2C	.	2e	2g
=9	=9	=9	=9
2F	2c]	2f	2a
2F	2c	2f	2a
1C	2c	2e	2g
.	2c	2e	2a
=10	=10	=10	=10
1BB-	2d	2f	2b-
.	2d	2f	2b-
2C	2.c	2e	2a
2C	.	[2c	[2g
.	4B-	.	.
=11	=11	=11	=11
2D	2A	4c]	4g]
.	.	4A	4f
2D	4G	2B	1f
.	4F	.	.
1C	2G	1c	.
.	2G	.	2e
=12	=12	=12	=12
2r	1F	0A	0f
2.F	.	.	.
.	2r	.	.
4F	.	.	.
2F	[2c	.	.
=13	=13	=13	=13
2E	4c]	0r	0r
.	4c	.	.
2F	2c	.	.
2G	2B-	.	.
2A	2c	.	.
=14	=14	=14	=14
2.F	2d	2r	0r
.	1c	1f	.
4E	.	.	.
1D	.	.	.
.	2B	2f	.
=15	=15	=15	=15
1C	1c	1e	2r
.	.	.	1cc
1r	2.A	2e	.
.	.	2f	2cc
.	4A	.	.
=16	=16	=16	=16
0r	2G	2g	2b-
.	2F	2a	2cc
.	2B-	2.f	2dd
.	2A	.	2cc
.	.	4e	.
=17	=17	=17	=17
1r	2F	1d	2cc
.	2G	.	2b
2r	1c	2e	2cc
[2F	.	[2a	[2cc
=18	=18	=18	=18
4F]	2r	4a]	4cc]
4F	.	4a	4cc
2F	2.f	2a	2cc
2B-	.	2f	2dd
.	4f	.	.
2B-	2f	2d	2dd
=19	=19	=19	=19
2G	2g	2d	2b
2G	2g	2d	2b
1c	2e	2e	1cc
.	2e	[2c	.
=20	=20	=20	=20
1F	1f	2c]	2a
.	.	2f	1cc
1r	2c	2e	.
.	[2f	[2a	2cc
=21	=21	=21	=21
0r	2f]	2a]	1cc
.	2e	2g	.
.	1d	1f	2b-
.	.	.	2a
=22	=22	=22	=22
0r	2d	2f	4b-
.	.	.	4a
.	2c	2e	1a
.	2B-	1d	.
.	2B-	.	2g
=23	=23	=23	=23
2r	1A	0e	0a
2A	.	.	.
2A	2r	.	.
2A	2e	.	.
=24	=24	=24	=24
1c	2e	0r	0r
.	2e	.	.
2A	2.f	.	.
[2B-	.	.	.
.	4e	.	.
=25	=25	=25	=25
2B-]	2d	0r	1r
2A	2c	.	.
2G	2d	.	[1b-
2G	2B-	.	.
=26	=26	=26	=26
1F	0c	1r	2b-]
.	.	.	4a
.	.	.	4g
1F	.	[1f	1a
=27	=27	=27	=27
0C	1c	2f]	0g
.	.	4e	.
.	.	4d	.
.	2c	2e	.
.	[2c	2e	.
=28	=28	=28	=28
0G	2c]	0d	0g
.	4B-	.	.
.	4A	.	.
.	1B	.	.
=29	=29	=29	=29
0C	2c	2e	1g
.	2e	2g	.
.	2e	2g	2r
.	2e	2g	2cc
=30	=30	=30	=30
0r	2.f	1a	2cc
.	.	.	2cc
.	4e	.	.
.	2d	2f	1dd
.	2G	[2g	.
=31	=31	=31	=31
0r	1r	2g]	2b-
.	.	2f	1cc
.	2r	2e	.
.	2G	2d	2b-
=32	=32	=32	=32
1r	2A	2c	1a
.	2F	1f	.
1C	2.c	.	1g
.	.	2e	.
.	4B-	.	.
=33	=33	=33	=33
2D	2A	1f	1.f
2BB-	2d	.	.
[1F	2c	[1a	.
.	4F	.	2cc
.	4G	.	.
=34	=34	=34	=34
2F]	4A	2a]	2dd
.	4B	.	.
2E	1c	2g	2ee
1D	.	2f	1ff
.	2B	2d	.
=35	=35	=35	=35
0C	0c	0g	0ee
=36	=36	=36	=36
0c	0e	0g	0cc
=37	=37	=37	=37
1A	1e	1a	1cc
2F	2f	2a	2cc
2F	2f	2a	2cc
=38	=38	=38	=38
2G	2d	2g	2b-
2A	2c	2f	2a
1B-	2f	1d	1dd
.	2g	.	.
=39	=39	=39	=39
2.A	2a	2e	2cc
.	1f	1a	1cc
4B-	.	.	.
1c	.	.	.
.	2e	2g	2cc
=40	=40	=40	=40
0r	2d	2f	2b-
.	2c	2e	2a
.	1B-	2d	1b-
.	.	[2f	.
=41	=41	=41	=41
1C	1c	2f]	1g
.	.	2e	.
1F	2r	2f	2f
.	2A	2c	2a
=42	=42	=42	=42
1F	1c	1f	2a
.	.	.	2a
1G	2B-	2d	1b-
.	2B-	2e	.
=43	=43	=43	=43
2F	2d	2f	2a
2D	2d	2f	2f
1F	1c	1f	1a
=44	=44	=44	=44
1C	1c	1e	0g
[1c	[1e	2r	.
.	.	[2g	.
=45	=45	=45	=45
2c]	2e]	2g]	1.cc
2c	2e	2g	.
1c	1e	1g	.
.	.	.	2cc
=46	=46	=46	=46
2A	2r	2a	1cc
2A	2.f	2a	.
2B-	.	2f	2dd
.	4f	.	.
2G	2e	2g	2ee
=47	=47	=47	=47
1F	2d	1a	2.ff
.	1c	.	.
.	.	.	4ff
1G	.	1g	2ee
.	2B	.	[2dd
=48	=48	=48	=48
1A	1c	2e	2dd]
.	.	2f#	1cc
1G	1d	1g	.
.	.	.	2b
=49	=49	=49	=49
2r	1c	0e	0cc
2A	.	.	.
1c	2r	.	.
.	2e	.	.
=50	=50	=50	=50
2G	1g	0r	0r
2G	.	.	.
1B-	2d	.	.
.	2d	.	.
=51	=51	=51	=51
2A	1f	1r	1r
2F	.	.	.
1A	2e	1c	1cc
.	2f	.	.
=52	=52	=52	=52
1G	1g	2d	2b-
.	.	2e	2g
[1F	1c	2f	2a
.	.	[2a	[2cc
=53	=53	=53	=53
1F]	1r	4a]	4cc]
.	.	4g	4b-
.	.	1f	2a
1r	1c	.	1g
.	.	2e	.
=54	=54	=54	=54
1F	2c	1f	2r
.	2c	.	2cc
2F	1f	2r	2cc
2F	.	2f	2cc
=55	=55	=55	=55
1B-	2d	2f	1dd
.	2d	2f	.
2G	[1g	1b-	2dd
2G	.	.	2dd
=56	=56	=56	=56
1c	2g]	2g	1ee
.	2c	2g	.
1F	2r	1a	2ff
.	2f	.	2cc
=57	=57	=57	=57
2r	2d	1f	1.dd
2B-	2d	.	.
2G	2g	2r	.
2G	2g	2b-	2dd
=58	=58	=58	=58
2c	1.e	2g	2ee
2c	.	2g	2ee
1A	.	2.a	1cc
.	2c	.	.
.	.	4a	.
=59	=59	=59	=59
1F	1f	1a	2r
.	.	.	2cc
1B-	2d	1f	1dd
.	2d	.	.
=60	=60	=60	=60
2G	2g	1b-	2dd
2G	2g	.	2dd
2c	1e	2g	2ee
2c	.	2g	2ee
=61	=61	=61	=61
1F	1.f	2a	0cc
.	.	2a	.
[1F	.	1a	.
.	2e	.	.
=62	=62	=62	=62
1F]	1d	1f	1dd
1E	[1c	1g	1ee
=63	=63	=63	=63
0D	2c]	1f	0ff
.	4B-	.	.
.	4A	.	.
.	1B	1d	.
=64	=64	=64	=64
1C	1c	2r	1ee
.	.	2g	.
1r	1A	1a	2r
.	.	.	2cc
=65	=65	=65	=65
0r	1B-	2f	1dd
.	.	2.g	.
.	2G	.	2b-
.	.	4f	.
.	[2A	4e	[2cc
.	.	4d	.
=66	=66	=66	=66
1r	2A]	2c	4cc]
.	.	.	4b-
.	2F	1f	4a
.	.	.	8g
.	.	.	8f
2r	1c	.	2g
2c	.	2e	2g
=67	=67	=67	=67
2A	2r	1f	1f
2B-	2d	.	.
2G	2e	1r	2r
2A	2e	.	2cc
=68	=68	=68	=68
2F	2f	0r	2a
2G	2.d	.	2b-
2E	.	.	2g
.	4c	.	.
2F	[2c	.	2a
=69	=69	=69	=69
1D	2c]	1r	2f
.	2B	.	1ff
2C	1c	1g	.
[2c	.	.	[2ee
=70	=70	=70	=70
4c]	1r	2e	4ee]
4B-	.	.	4dd
4A	.	2f	1cc
4G	.	.	.
2F	2r	1d	.
2G	[2g	.	2b
=71	=71	=71	=71
2C	2g]	1e	1cc
2c	2.e	.	.
2A	.	2c	1r
.	4f	.	.
2B-	2d	[2g	.
=72	=72	=72	=72
2G	2e	2g]	2r
2A	2c	2e	2cc
2F	2d	2f	2a
2G	2B-	2d	2b-
=73	=73	=73	=73
2E	2c	2e	2g
2F	2A	2c	2a
2D	2.B-	2d	2f
2E-	.	2B-	2g
.	4G	.	.
=74	=74	=74	=74
2C	2A	2c	2e
2D	2F	2A	2.f
2BB-	1G	2d	.
.	.	.	4d
2C	.	[2c	2e
=75	=75	=75	=75
2AA	1F	2c]	[0f
1BB-	.	2B-	.
.	2B-	2d	.
2AA	2c	2c	.
=76	=76	=76	=76
0BB-	2.d	2.B-	0f]
.	4c	4c	.
.	1B-	1d	.
=77	=77	=77	=77
[0F	[0A	[0c	[0f
=78	=78	=78	=78
0F]	0A]	0c]	0f]
==	==	==	==
*-	*-	*-	*-
!!!CDT: 1525/^1526/-1594/2/2
!!!OCY: Italia
!!!AGN: Mass (Free)
!!!AST: renaissance, vocal
!!!ASW: Motet 1532 (Penet)
!!!PWK: Masses, Book 3
!!!RNB: Cadence finals: C
!!!YOR: Le Opere Complete, v. 6, p. 62
!!!YOO: Rome, Italy: Fratelli Scalera
!!!END: 1992//
!!!EED: John Miller
!!!YEC: Copyright 2000, John Miller
!!!YEN: United States of America
!!!YEM: Rights to all derivative electronic formats reserved.
!!!YEM: Refer to licensing agreement for further details.
!!!YEM: This file must be accompanied by the licensing agreement.
!!!YEM: A copy of the licensing agreement may be found at http://www.music-cog.ohio-state.edu/HumdrumDatabases/Palestrina/license.txt
!!!EMD: converted to Humdrum by Bret Aarden
